!!!COM: Bach, Johann Sebastian
!!!CDT: 1685/3//-1750/7/28/
!!!OTL@@DE: Jesus Christus, unser Heiland
!!!AGN: 4-Part Chorale
!!!SCT: BH 030
!!!SCT: BWV 363
!!!YEC: Copyright 1994, David Huron
!!!YEC: Changes/Additions 2001 by Craig Stuart Sapp
!!!YEN: United States of America
!!!SMA: 371 Bach Chorales, edited by Ludwig Erk, C.F. Peters
!!!PDT: 1850, 1865
!!!ONB: Harmony and Root analysis done manually
**kern	**kern	**kern	**kern	**root	**harm
!bass	!tenor	!alto	!soprno	!	!
*Iorgan	*Iorgan	*Iorgan	*Iorgan	*Iorgan	*
*M4/4	*M4/4	*M4/4	*M4/4	*M4/4	*M4/4
*met(C)	*met(C)	*met(C)	*met(C)	*met(C)	*met(C)
*MM60	*MM60	*MM60	*MM60	*MM60	*MM60
*k[f#]	*k[f#]	*k[f#]	*k[f#]	*k[f#]	*k[f#]
*e:	*e:	*e:	*e:	*e:	*e:
=1-	=1-	=1-	=1-	=1-	=1-
4.E	4G	4B	4e	4EE	i
.	4F#	4B	4b	4BB	vb
8D	.	.	.	.	.
2C	4G	8e	4b	4CC	VI7
.	.	8d#	.	.	.
.	8F#	4e	4a	4AA	ivb
.	8E	.	.	.	.
=2	=2	=2	=2	=2	=2
8BB	4F#	4d#	4b	4BB	V
8A	.	.	.	.	.
8G	8B	8e	8e	8EE	ib
8F#	8A	8d#	8f#	8DD#	-VIIb
8E	4B	4e	4g	4EE	i
8Dn	.	.	.	.	.
8C	8e	4e	4g	4CC	VI
8BB	8d#	.	.	.	.
=3	=3	=3	=3	=3	=3
4AA#	4c#	4.e	4g	4AA#	viioD7/V
4BB	8F#	.	4f#	4BB	V7
.	16B	8d#	.	.	.
.	16An	.	.	.	.
2EE;	2G;	2B;	2e;	2EE;	i;
=4	=4	=4	=4	=4	=4
8E	4B	4e	4g	4EE	i
8D	.	.	.	.	.
4Cn	4cn	4e	4g	4CC	VI
4BB	4G	4dn	4g	4GG	IIIb
4C	4G	4c	4e	4CC	VI
=5	=5	=5	=5	=5	=5
8C	8G	4d	4g	4GG	IIIb
8BB	16A	.	.	.	.
.	16B	.	.	.	.
4AA	4c	8e	4a	4AA	IV
.	.	8f#	.	.	.
4GG	8d	4.g	4b	4GG	III
.	16e	.	.	.	.
.	16d	.	.	.	.
4AA	16c	.	4a	4FF#	iib
.	16B	.	.	.	.
.	8c	[8f#	.	.	.
=6	=6	=6	=6	=6	=6
2BB	4B	8f#]	4g	4EE	ic
.	.	4e	.	.	.
.	8.B	.	4f#	4BB	V
.	.	8d#	.	.	.
.	16A	.	.	.	.
2E;	2G;	2B;	2e;	2EE;	i;
!!linebreak: 2
=7	=7	=7	=7	=7	=7
4E	8B	4e	4g	4EE	i
.	8c	.	.	.	.
4BB	4d	8g	4g	4GG	IIIb
.	.	8f#	.	.	.
8C	4c	4e	4g	4CC	VI
8D	.	.	.	.	.
8E	4G	4c	4e	4CC	VIb
8D	.	.	.	.	.
=8	=8	=8	=8	=8	=8
8C	4G	8e	4g	4CC	VI
8BB	.	8d	.	.	.
4AA	4c	8e	4a	4AA	IV
.	.	8f#	.	.	.
4GG	[4d	4.g	4b	4GG	III
4D	8.d]	.	4a	4DD	-VII
.	.	8f#	.	.	.
.	16c	.	.	.	.
=9	=9	=9	=9	=9	=9
2GG;	2B;	2d;	2g;	2GG;	III;
4r	4r	4r	4r	4r	r
4BB	4d	8g	4dd	4GG	IIIb
.	.	8fn	.	.	.
=10	=10	=10	=10	=10	=10
4C	8c	4e	4ee	4CC	VI
.	8B	.	.	.	.
4D	4A	4f#y	8dd	4DD	-VII
.	.	.	8cc	.	.
4.E	8G	8g	8b	8EE	i
.	8c	8d#	8a	8DD#	viioD7
.	8B	8e	8g	8EE	i
8F#	8A	[8dn	8a	8DD	-VIIb
=11	=11	=11	=11	=11	=11
8G	8G	8d]	4b	8GG	III
8BB	8d	4g	.	8GG	IIIb
8C#	8e	.	4a	8AA	V7b/-VII
8D#	8B	4f#	.	8BB	V7b
8E	4B	.	4g	4EE	i
8GG	.	4e	.	.	.
8AA	8cn	.	4f#	8FF#	viiD7/III
8BB	16B	8d#	.	8BB	V
.	16A	.	.	.	.
=12	=12	=12	=12	=12	=12
2.EE;	2.G#;	2.B;	2.e;	2.EE;	I;
==	==	==	==	==	==
*-	*-	*-	*-	*-	*-
!!chor2scor: -l 2 -s 0.6 -o %b.pmx
